app/assets/images/mfa-options/security_key.svg

<svg viewBox="0 0 262 124" fill="none" xmlns="http://www.w3.org/2000/svg">
  <g id="security-key-how-to-desktop-b-LOOP">
    <g clip-path="url(#clip0_164_2518)">
      <rect width="262" height="124" rx="8" fill="#F2F9FF"></rect>
      <g id="security-key">
        <animateTransform
          attributeName="transform"
          attributeType="xml"
          type="translate"
          dur="4s"
          values="0,0; 0,0; -88,0; -88,0; 0,0"
          keyTimes="0; 0.25; 0.375; 0.875; 1"
          keySplines="
            0.42, 0, 0.58, 1;
            0.42, 0, 0.58, 1;
            0.42, 0, 0.58, 1;
            0.42, 0, 0.58, 1;
            0.42, 0, 0.58, 1"
          repeatCount="indefinite" />
        <rect id="Rectangle 282" x="216.268" y="89.7586" width="66.646" height="26.7931" transform="rotate(-180 216.268 89.7586)" fill="#FDB81E"></rect>
        <path id="Subtract" fill-rule="evenodd" clip-rule="evenodd" d="M170.744 90.9054L150.013 90.8725C149.486 90.8726 148.964 90.7694 148.477 90.5689C147.99 90.3683 147.548 90.0744 147.175 89.7037C146.802 89.3331 146.507 88.8931 146.305 88.4088C146.104 87.9245 146 87.4055 146 86.8814L146.037 64.9393C146.037 64.4141 146.141 63.894 146.344 63.4089C146.547 62.9238 146.843 62.4832 147.218 62.1125C147.592 61.7418 148.036 61.4482 148.525 61.2486C149.013 61.049 149.537 60.9473 150.065 60.9493L170.775 60.9841C171.113 60.9872 171.449 61.0314 171.776 61.1158L171.78 58.99C171.78 58.4648 171.884 57.9447 172.087 57.4595C172.289 56.9744 172.586 56.5339 172.96 56.1632C173.335 55.7924 173.779 55.4989 174.268 55.2993C174.756 55.0997 175.28 54.998 175.808 55L197.194 55.0334L197.563 55.0336L233.987 55.0961C234.516 55.0961 235.039 55.1997 235.526 55.4012C236.014 55.6026 236.457 55.8979 236.83 56.27C237.203 56.6421 237.498 57.0838 237.699 57.5696C237.9 58.0555 238.002 58.576 238 59.1013L237.993 63.3619C237.995 63.3598 237.997 63.3576 238 63.3554L237.993 64.5972L237.993 70.1979L238 71.7624L237.993 75.2054L237.993 82.7946L237.977 82.7946L237.955 93.0059C237.955 93.5311 237.851 94.0513 237.648 94.5364C237.446 95.0215 237.149 95.462 236.774 95.8327C236.4 96.2035 235.956 96.497 235.467 96.6966C234.979 96.8962 234.455 96.9979 233.927 96.9959L230.722 97L227.48 96.9843L175.755 96.907C175.226 96.9071 174.703 96.8034 174.215 96.602C173.728 96.4005 173.284 96.1053 172.912 95.7332C172.539 95.361 172.244 94.9194 172.043 94.4335C171.842 93.9476 171.74 93.4271 171.742 92.9019L171.745 90.7761C171.419 90.8626 171.082 90.9061 170.744 90.9054ZM191.868 69.3308C190.542 71.2968 189.832 73.6097 189.828 75.977C189.822 79.1507 191.085 82.1966 193.337 84.4448C195.59 86.6931 198.649 87.9596 201.841 87.9659C204.221 87.9705 206.55 87.2731 208.532 85.9617C210.514 84.6504 212.061 82.784 212.976 80.5986C213.891 78.4133 214.134 76.0071 213.674 73.6845C213.214 71.3618 212.071 69.227 210.391 67.55C208.711 65.873 206.568 64.7292 204.234 64.2631C201.9 63.7971 199.479 64.0298 197.278 64.9319C195.077 65.8339 193.194 67.3648 191.868 69.3308ZM150.725 64.943L150.72 68.9312C150.722 69.107 150.795 69.2746 150.922 69.3974C151.048 69.5201 151.219 69.5879 151.395 69.586L171.783 69.6312L171.79 64.312L151.395 64.2784C151.307 64.2782 151.22 64.2952 151.138 64.3285C151.057 64.3619 150.983 64.4108 150.921 64.4725C150.859 64.5342 150.809 64.6076 150.776 64.6883C150.742 64.769 150.725 64.8556 150.725 64.943ZM171.773 70.2871L156.734 70.272L156.737 75.5821L171.774 75.5994L171.773 70.2871ZM171.754 76.2644L156.717 76.2471L156.715 81.5758L171.754 81.5908L171.754 76.2644ZM150.688 82.8873L150.683 86.8756L150.69 86.8828C150.693 87.0569 150.765 87.2228 150.89 87.3448C151.015 87.4668 151.183 87.5351 151.359 87.535L171.754 87.5687L171.753 82.2563L151.358 82.2227C151.27 82.2225 151.183 82.2396 151.102 82.2729C151.021 82.3062 150.947 82.3551 150.884 82.4168C150.822 82.4786 150.773 82.5519 150.739 82.6326C150.705 82.7134 150.688 82.7999 150.688 82.8873Z" fill="#112E51"></path>
      </g>
      <g id="laptop">
        <rect id="Rectangle 293" x="-296" y="29" width="380" height="132" rx="12" fill="#DEDEDE"></rect>
        <rect id="Rectangle 294" x="-295" y="-48" width="378" height="76" rx="11" fill="#454545" stroke="#DEDEDE" stroke-width="2"></rect>
        <rect id="Rectangle 295" x="-276" y="49" width="340" height="92" rx="8" fill="#F0F0F0"></rect>
        <rect id="Rectangle 296" x="4" y="57" width="52" height="36" rx="4" fill="#454545"></rect>
        <g id="Group 24">
          <path id="Vector" d="M25.2455 69.6668C25.4432 69.4951 25.5646 69.2519 25.5829 68.9908C25.6013 68.7296 25.5152 68.4718 25.3435 68.2741C25.1718 68.0764 24.9286 67.9551 24.6674 67.9367C24.4063 67.9183 24.1485 68.0045 23.9508 68.1762C22.5275 69.4111 21.5163 71.0521 21.0531 72.8787C20.5898 74.7052 20.6967 76.6298 21.3594 78.3938C22.022 80.1579 23.2087 81.6768 24.76 82.7466C26.3113 83.8163 28.1529 84.3856 30.0372 84.3781C31.9216 84.3705 33.7585 83.7863 35.3011 82.7041C36.8438 81.6218 38.0182 80.0934 38.6666 78.3241C39.3151 76.5548 39.4064 74.6294 38.9285 72.8067C38.4505 70.9839 37.4261 69.3511 35.9929 68.1276C35.7939 67.9575 35.5354 67.8735 35.2744 67.894C35.0134 67.9145 34.7712 68.0378 34.6012 68.2368C34.4311 68.4358 34.347 68.6943 34.3675 68.9553C34.388 69.2163 34.5113 69.4585 34.7103 69.6286C35.5086 70.3096 36.1496 71.1557 36.5889 72.1085C37.0283 73.0614 37.2557 74.0982 37.2553 75.1475C37.2553 79.1485 34.0001 82.4037 29.9991 82.4037C25.998 82.4037 22.7447 79.1489 22.7447 75.1478C22.7447 74.1084 22.968 73.0812 23.3994 72.1355C23.8309 71.1899 24.4604 70.348 25.2455 69.6668Z" fill="#F0F0F0"></path>
          <path id="Vector_2" d="M30.9879 75.7658V66.5436C30.9879 66.2818 30.8839 66.0307 30.6987 65.8455C30.5136 65.6604 30.2625 65.5564 30.0007 65.5564C29.7388 65.5564 29.4877 65.6604 29.3026 65.8455C29.1175 66.0307 29.0135 66.2818 29.0135 66.5436V75.7658C29.0135 76.0276 29.1175 76.2787 29.3026 76.4639C29.4877 76.649 29.7388 76.753 30.0007 76.753C30.2625 76.753 30.5136 76.649 30.6987 76.4639C30.8839 76.2787 30.9879 76.0276 30.9879 75.7658Z" fill="#F0F0F0"></path>
        </g>
        <rect id="Rectangle 299" x="4" y="97" width="52" height="36" rx="4" fill="#454545"></rect>
      </g>
      <path id="arrow" fill-rule="evenodd" clip-rule="evenodd" d="M117.86 67.002C117.86 66.1074 116.775 65.6629 116.147 66.3004L107.287 75.2989C106.904 75.6882 106.904 76.3129 107.287 76.7021L116.147 85.7006C116.775 86.3381 117.86 85.8937 117.86 84.999V82.2463C117.86 81.694 118.307 81.2463 118.86 81.2463H130C130.553 81.2463 131 80.7986 131 80.2463V71.818C131 71.2657 130.553 70.818 130 70.818H118.86C118.307 70.818 117.86 70.3703 117.86 69.818V67.002Z" fill="#E21C3D">
        <animate
          attributeName="opacity"
          values="1; 1; 0; 0; 1"
          dur="4s"
          keyTimes="0; 0.15; 0.25; 0.925; 1"
          keySplines="
            0.42, 0, 0.58, 1;
            0.42, 0, 0.58, 1;
            0.42, 0, 0.58, 1;
            0.42, 0, 0.58, 1;
            0.42, 0, 0.58, 1"
          repeatCount="indefinite"
          />
        <animateTransform
          attributeName="transform"
          attributeType="xml"
          type="translate"
          values="0,0; 0,0; -10,0; -10,0; 0.0"
          dur="4s"
          keyTimes="0.0; 0.075; 0.25; 0.925; 1.0"
          keySplines="
            0.42, 0, 0.58, 1;
            0.42, 0, 0.58, 1;
            0.42, 0, 0.58, 1;
            0.42, 0, 0.58, 1;
            0.42, 0, 0.58, 1"
          repeatCount="indefinite"
          />
      </path>
    </g>
    <rect x="0.5" y="0.5" width="261" height="123" rx="7.5" stroke="#CEDCED"></rect>
  </g>
  <defs>
    <clipPath id="clip0_164_2518">
      <rect width="262" height="124" rx="8" fill="white"></rect>
    </clipPath>
  </defs>
</svg>

<svg xmlns="http://www.w3.org/2000/svg" fill="none" viewBox="0 0 262 124"><g clip-path="url(#a)"><rect width="262" height="124" fill="#F2F9FF" rx="8"/><g><animateTransform attributeName="transform" attributeType="xml" dur="4s" keySplines="0.42, 0, 0.58, 1; 0.42, 0, 0.58, 1; 0.42, 0, 0.58, 1; 0.42, 0, 0.58, 1; 0.42, 0, 0.58, 1" keyTimes="0; 0.25; 0.375; 0.875; 1" repeatCount="indefinite" type="translate" values="0,0; 0,0; -88,0; -88,0; 0,0"/><path fill="#FDB81E" d="M216.268 89.758h-66.646V62.965h66.646z"/><path fill="#112E51" fill-rule="evenodd" d="m170.744 90.905-20.731-.032a4.03 4.03 0 0 1-2.838-1.17A4 4 0 0 1 146 86.882l.037-21.942a3.96 3.96 0 0 1 1.181-2.826 4.03 4.03 0 0 1 2.847-1.163l20.71.034q.509.005 1.001.132l.004-2.126a3.98 3.98 0 0 1 2.488-3.69 4 4 0 0 1 1.54-.3l21.386.033h.369l36.424.063a4.03 4.03 0 0 1 2.843 1.174 4 4 0 0 1 1.17 2.831l-.007 4.26.007-.006-.007 1.242v5.6l.007 1.565-.007 3.443v7.59h-.016l-.022 10.21a3.96 3.96 0 0 1-1.181 2.828 4.03 4.03 0 0 1-2.847 1.163l-3.205.004-3.242-.016-51.725-.077a4.03 4.03 0 0 1-2.843-1.174 4 4 0 0 1-1.17-2.831l.003-2.126c-.326.087-.663.13-1.001.13m21.124-21.574a11.92 11.92 0 0 0 1.469 15.114 12.07 12.07 0 0 0 8.504 3.52c2.38.005 4.709-.692 6.691-2.003a12 12 0 0 0 4.444-5.363 11.9 11.9 0 0 0 .698-6.915 11.95 11.95 0 0 0-3.283-6.134 12.06 12.06 0 0 0-6.157-3.287 12.1 12.1 0 0 0-6.956.669 12 12 0 0 0-5.41 4.399m-41.143-4.388-.005 3.988a.67.67 0 0 0 .675.655l20.388.045.007-5.319-20.395-.034a.68.68 0 0 0-.474.194.66.66 0 0 0-.196.471m21.048 5.344-15.039-.015.003 5.31 15.037.017zm-.019 5.977-15.037-.017-.002 5.329 15.039.015zm-21.066 6.623-.005 3.989.007.007a.67.67 0 0 0 .669.652l20.395.034-.001-5.313-20.395-.033a.67.67 0 0 0-.67.664" clip-rule="evenodd"/></g><rect width="380" height="132" x="-296" y="29" fill="#DEDEDE" rx="12"/><rect width="378" height="76" x="-295" y="-48" fill="#454545" stroke="#DEDEDE" stroke-width="2" rx="11"/><rect width="340" height="92" x="-276" y="49" fill="#F0F0F0" rx="8"/><rect width="52" height="36" x="4" y="57" fill="#454545" rx="4"/><g fill="#F0F0F0"><path d="M25.246 69.667a.987.987 0 1 0-1.295-1.49 9.23 9.23 0 1 0 12.042-.05.987.987 0 1 0-1.283 1.502 7.25 7.25 0 0 1 2.545 5.518c0 4.001-3.255 7.257-7.256 7.257s-7.254-3.255-7.254-7.256a7.26 7.26 0 0 1 2.5-5.481"/><path d="M30.988 75.766v-9.222a.987.987 0 0 0-1.974 0v9.222a.988.988 0 0 0 1.974 0"/></g><rect width="52" height="36" x="4" y="97" fill="#454545" rx="4"/><path fill="#E21C3D" fill-rule="evenodd" d="M117.86 67.002c0-.895-1.085-1.34-1.713-.702l-8.86 8.999a1 1 0 0 0 0 1.403l8.86 8.999c.628.637 1.713.193 1.713-.702v-2.753a1 1 0 0 1 1-1H130a1 1 0 0 0 1-1v-8.428a1 1 0 0 0-1-1h-11.14a1 1 0 0 1-1-1z" clip-rule="evenodd"><animate attributeName="opacity" dur="4s" keySplines="0.42, 0, 0.58, 1; 0.42, 0, 0.58, 1; 0.42, 0, 0.58, 1; 0.42, 0, 0.58, 1; 0.42, 0, 0.58, 1" keyTimes="0; 0.15; 0.25; 0.925; 1" repeatCount="indefinite" values="1; 1; 0; 0; 1"/><animateTransform attributeName="transform" attributeType="xml" dur="4s" keySplines="0.42, 0, 0.58, 1; 0.42, 0, 0.58, 1; 0.42, 0, 0.58, 1; 0.42, 0, 0.58, 1; 0.42, 0, 0.58, 1" keyTimes="0.0; 0.075; 0.25; 0.925; 1.0" repeatCount="indefinite" type="translate" values="0,0; 0,0; -10,0; -10,0; 0.0"/></path></g><rect width="261" height="123" x=".5" y=".5" stroke="#CEDCED" rx="7.5"/><defs><clipPath id="a"><rect width="262" height="124" fill="#fff" rx="8"/></clipPath></defs></svg>
